Numix-Circle/48x48/apps/geany.svg

<?xml version="1.0" encoding="UTF-8" standalone="no"?>
<svg
   xmlns:dc="http://purl.org/dc/elements/1.1/"
   xmlns:cc="http://creativecommons.org/ns#"
   xmlns:rdf="http://www.w3.org/1999/02/22-rdf-syntax-ns#"
   xmlns:svg="http://www.w3.org/2000/svg"
   xmlns="http://www.w3.org/2000/svg"
   xmlns:xlink="http://www.w3.org/1999/xlink"
   xmlns:sodipodi="http://sodipodi.sourceforge.net/DTD/sodipodi-0.dtd"
   xmlns:inkscape="http://www.inkscape.org/namespaces/inkscape"
   width="48"
   viewBox="0 0 13.546667 13.546667"
   height="48"
   id="svg2"
   version="1.1"
   inkscape:version="0.91 r13725"
   sodipodi:docname="geany.svg">
  <metadata
     id="metadata331">
    <rdf:RDF>
      <cc:Work
         rdf:about="">
        <dc:format>image/svg+xml</dc:format>
        <dc:type
           rdf:resource="http://purl.org/dc/dcmitype/StillImage" />
        <dc:title />
      </cc:Work>
    </rdf:RDF>
  </metadata>
  <sodipodi:namedview
     pagecolor="#ffffff"
     bordercolor="#666666"
     borderopacity="1"
     objecttolerance="10"
     gridtolerance="10"
     guidetolerance="10"
     inkscape:pageopacity="0"
     inkscape:pageshadow="2"
     inkscape:window-width="1920"
     inkscape:window-height="1023"
     id="namedview329"
     showgrid="true"
     inkscape:zoom="15.595"
     inkscape:cx="3.8813733"
     inkscape:cy="32.990272"
     inkscape:window-x="0"
     inkscape:window-y="28"
     inkscape:window-maximized="1"
     inkscape:current-layer="layer3">
    <inkscape:grid
       type="xygrid"
       id="grid3308" />
  </sodipodi:namedview>
  <defs
     id="defs4">
    <linearGradient
       inkscape:collect="always"
       xlink:href="#linearGradient3764"
       id="linearGradient4033"
       x1="-27"
       y1="13"
       x2="-24"
       y2="13"
       gradientUnits="userSpaceOnUse" />
    <linearGradient
       id="linearGradient3764"
       x1="1"
       x2="47"
       gradientUnits="userSpaceOnUse"
       gradientTransform="matrix(0,-1,1,0,-1.5e-6,47.999998)">
      <stop
         stop-color="#f6d22a"
         stop-opacity="1"
         id="stop7-85" />
      <stop
         offset="1"
         stop-color="#f7d53d"
         stop-opacity="1"
         id="stop9-6" />
    </linearGradient>
  </defs>
  <g
     inkscape:groupmode="layer"
     id="layer1"
     inkscape:label="Shadow"
     sodipodi:insensitive="true">
    <path
       style="opacity:0.05;fill:#000000;fill-opacity:1;stroke:none"
       d="M 25,2 C 12.297451,2 2,12.297451 2,25 2,31.367153 4.6007106,37.116628 8.78125,41.28125 12.865755,44.99361 18.29568,47.25 24.25,47.25 c 12.702549,0 23,-10.297451 23,-23 0,-5.95432 -2.25639,-11.384245 -5.96875,-15.46875 C 37.116628,4.6007105 31.367153,2 25,2 z M 41.28125,8.78125 C 45.135604,12.894061 47.5,18.418655 47.5,24.5 c 0,12.702549 -10.297451,23 -23,23 C 18.418655,47.5 12.894061,45.135604 8.78125,41.28125 12.940939,45.4251 18.664604,48 25,48 37.702549,48 48,37.702549 48,25 48,18.664604 45.4251,12.940939 41.28125,8.78125 z"
       transform="scale(0.28222223,0.28222223)"
       id="path3978"
       inkscape:connector-curvature="0" />
    <path
       style="opacity:0.1;fill:#000000;fill-opacity:1;stroke:none"
       d="M 41.28125,8.78125 C 44.99361,12.865755 47.25,18.29568 47.25,24.25 c 0,12.702549 -10.297451,23 -23,23 -5.95432,0 -11.384245,-2.25639 -15.46875,-5.96875 C 12.894061,45.135604 18.418655,47.5 24.5,47.5 c 12.702549,0 23,-10.297451 23,-23 0,-6.081345 -2.364396,-11.605939 -6.21875,-15.71875 z"
       transform="scale(0.28222223,0.28222223)"
       id="path3976"
       inkscape:connector-curvature="0" />
    <path
       transform="matrix(4.3274074,0,0,3.2455556,117.19278,-35.348334)"
       d="m -24,13 a 1.5,2 0 1 1 -3,0 1.5,2 0 1 1 3,0 z"
       sodipodi:ry="2"
       sodipodi:rx="1.5"
       sodipodi:cy="13"
       sodipodi:cx="-25.5"
       id="path3952"
       style="opacity:0.2;fill:#000000;fill-opacity:1;stroke:none"
       sodipodi:type="arc" />
  </g>
  <g
     inkscape:groupmode="layer"
     id="layer2"
     inkscape:label="Base">
    <path
       sodipodi:type="arc"
       style="fill:url(#linearGradient4033);fill-opacity:1.0;stroke:none"
       id="path3942"
       sodipodi:cx="-25.5"
       sodipodi:cy="13"
       sodipodi:rx="1.5"
       sodipodi:ry="2"
       d="m -24,13 a 1.5,2 0 1 1 -3,0 1.5,2 0 1 1 3,0 z"
       transform="matrix(0,-4.3274075,3.2455556,0,-35.418894,-103.57556)" />
    <path
       style="opacity:0.1;fill:#000000;fill-opacity:1;stroke:none"
       d="M 40.03125 7.53125 C 43.74361 11.615755 46 17.04568 46 23 C 46 35.702549 35.702549 46 23 46 C 17.04568 46 11.615755 43.74361 7.53125 40.03125 C 11.709416 44.322508 17.537578 47 24 47 C 36.702549 47 47 36.702549 47 24 C 47 17.537578 44.322508 11.709416 40.03125 7.53125 z "
       id="path4027"
       transform="scale(0.28222223,0.28222223)" />
  </g>
  <g
     inkscape:groupmode="layer"
     id="layer3"
     inkscape:label="Symbol">
    <path
       sodipodi:nodetypes="ccccccssccccccccscccccccscscssccccsccc"
       inkscape:connector-curvature="0"
       id="path4102"
       d="M 5.6443824,9.3133336 C 5.7087484,9.0510625 5.9137126,8.8610787 6.0927234,8.7085314 6.2098074,8.6328834 6.2154414,8.5691679 6.1214634,8.5260084 5.6443824,8.3050694 5.2527165,8.1677021 4.8584889,7.9515063 4.1909999,7.5786882 3.8082599,7.037224 3.7076689,6.323438 c -0.020556,-0.1714321 -0.02071,-0.3492641 0.00887,-0.4743343 0.0411,-0.088954 0.125924,-0.1421482 0.226683,-0.1421482 0.06504,0 0.102046,0.015138 0.283365,0.1159215 0.41226,0.2291486 0.814956,0.4112658 1.025555,0.4638017 0.08558,0.021352 0.09495,0.020945 0.143857,-0.00632 0.231734,-0.1290091 0.412379,-0.3254391 0.492741,-0.3536918 l 1.846898,0 c 0.2825397,0.3324625 0.6829937,0.5501632 1.021776,0.6815866 0.369973,0.092704 0.910901,0.00139 1.3073771,-0.2207867 0.208174,-0.1228614 0.332332,-0.249106 0.399283,-0.4607999 l 0.515538,0 c 0,0.038944 -0.106708,0.325729 -0.183536,0.4292956 -0.246034,0.3316632 -0.629941,0.5996483 -1.2118761,0.8459417 -0.835373,0.4180961 -1.397403,0.9900458 -2.118292,1.3240294 -0.1397894,0.071401 -0.023997,0.1123341 0.03742,0.1824915 0.1946568,0.1773485 0.3353164,0.3649923 0.39883,0.6049085 z M 5.2069529,7.4523661 5.0794729,6.815169 c -0.01078,-0.00718 -0.06491,-0.027812 -0.12029,-0.0458 -0.109672,-0.035623 -0.398908,-0.1572607 -0.525078,-0.2208273 -0.09271,-0.046711 -0.143857,-0.0518 -0.143857,-0.014324 0,0.04985 0.115835,0.2815656 0.201977,0.4040416 0.09402,0.1336706 0.198776,0.241452 0.342033,0.3518925 0.131579,0.1014357 0.305829,0.2045985 0.345591,0.2045985 0.02964,0 0.03336,-0.00579 0.0271,-0.042383 z m 0.77544,-1.8079214 c 0.0059,-0.010606 0.0686,-0.1313129 0.139337,-0.2457484 0.293728,-0.4751592 0.429692,-0.6005965 0.65135,-0.6009232 0.211463,-3.118e-4 0.359555,0.133797 0.638952,0.5786251 0.08699,0.1384906 0.158157,0.2633465 0.158157,0.2680465 z"
       style="fill:#000000;fill-opacity:1;opacity:0.1" />
    <path
       style="fill:#d11616;fill-opacity:1"
       d="M 5.3621602,9.0311113 C 5.4265262,8.7688402 5.6314904,8.5788564 5.8105012,8.4263091 5.9275852,8.3506611 5.9332192,8.2869456 5.8392412,8.2437861 5.3621602,8.0228471 4.9704943,7.8854798 4.5762667,7.669284 3.9087777,7.2964659 3.5260377,6.7550017 3.4254467,6.0412157 c -0.020556,-0.1714321 -0.02071,-0.3492641 0.00887,-0.4743343 0.0411,-0.088954 0.125924,-0.1421482 0.226683,-0.1421482 0.06504,0 0.102046,0.015138 0.283365,0.1159215 0.41226,0.2291486 0.814956,0.4112658 1.025555,0.4638017 0.08558,0.021352 0.09495,0.020945 0.143857,-0.00632 0.231734,-0.1290091 0.412379,-0.3254391 0.492741,-0.3536918 l 1.846898,0 c 0.2825397,0.3324625 0.6829937,0.5501632 1.021776,0.6815866 0.369973,0.092704 0.910901,0.00139 1.307377,-0.2207867 0.2081744,-0.1228614 0.3323323,-0.249106 0.3992833,-0.4607999 l 0.515538,0 c 0,0.038944 -0.106708,0.325729 -0.183536,0.4292956 -0.246034,0.3316632 -0.6299413,0.5996483 -1.2118763,0.8459417 -0.835373,0.4180961 -1.397403,0.9900458 -2.118292,1.3240294 -0.1397894,0.071401 -0.023997,0.1123341 0.03742,0.1824915 0.1946568,0.1773485 0.3353164,0.3649923 0.39883,0.6049085 z M 4.9247307,7.1701438 4.7972507,6.5329467 c -0.01078,-0.00718 -0.06491,-0.027812 -0.12029,-0.0458 -0.109672,-0.035623 -0.398908,-0.1572607 -0.525078,-0.2208273 -0.09271,-0.046711 -0.143857,-0.0518 -0.143857,-0.014324 0,0.04985 0.115835,0.2815656 0.201977,0.4040416 0.09402,0.1336706 0.198776,0.241452 0.342033,0.3518925 0.131579,0.1014357 0.305829,0.2045985 0.345591,0.2045985 0.02964,0 0.03336,-0.00579 0.0271,-0.042383 z m 0.77544,-1.8079214 c 0.0059,-0.010606 0.0686,-0.1313129 0.139337,-0.2457484 0.293728,-0.4751592 0.429692,-0.6005965 0.65135,-0.6009232 0.211463,-3.118e-4 0.359555,0.133797 0.638952,0.5786251 0.08699,0.1384906 0.158157,0.2633465 0.158157,0.2680465 z"
       id="path4100"
       inkscape:connector-curvature="0"
       sodipodi:nodetypes="ccccccssccccccccscccccccscscssccccsccc" />
  </g>
</svg>

<svg xmlns="http://www.w3.org/2000/svg" width="48" viewBox="0 0 13.546667 13.546667" height="48">
 <defs>
  <linearGradient id="linearGradient4033" x1="-27" x2="-24" gradientUnits="userSpaceOnUse">
   <stop style="stop-color:#f6d22a;stop-opacity:1"/>
   <stop offset="1" style="stop-color:#f7d53d;stop-opacity:1"/>
  </linearGradient>
 </defs>
 <g>
  <path d="m 25 2 c -12.703 0 -23 10.297 -23 23 0 6.367 2.601 12.12 6.781 16.281 4.085 3.712 9.514 5.969 15.469 5.969 c 12.703 0 23 -10.297 23 -23 0 -5.954 -2.256 -11.384 -5.969 -15.469 c -4.165 -4.181 -9.914 -6.781 -16.281 -6.781 z m 16.281 6.781 c 3.854 4.113 6.219 9.637 6.219 15.719 c 0 12.703 -10.297 23 -23 23 c -6.081 0 -11.606 -2.364 -15.719 -6.219 4.16 4.144 9.883 6.719 16.219 6.719 12.703 0 23 -10.297 23 -23 0 -6.335 -2.575 -12.06 -6.719 -16.219 z" transform="scale(0.28222223,0.28222223)" style="fill:#000;opacity:0.05;fill-opacity:1;stroke:none"/>
  <path d="m 41.28 8.781 c 3.712 4.085 5.969 9.514 5.969 15.469 c 0 12.703 -10.297 23 -23 23 -5.954 0 -11.384 -2.256 -15.469 -5.969 c 4.113 3.854 9.637 6.219 15.719 6.219 c 12.703 0 23 -10.297 23 -23 0 -6.081 -2.364 -11.606 -6.219 -15.719 z" transform="scale(0.28222223,0.28222223)" style="fill:#000;opacity:0.1;fill-opacity:1;stroke:none"/>
  <path transform="matrix(4.3274074,0,0,3.2455556,117.19278,-35.348334)" d="m -24 13 a 1.5 2 0 1 1 -3 0 1.5 2 0 1 1 3 0 z" style="fill:#000;opacity:0.2;fill-opacity:1;stroke:none"/>
 </g>
 <g>
  <path d="m -24 13 a 1.5 2 0 1 1 -3 0 1.5 2 0 1 1 3 0 z" transform="matrix(0,-4.3274075,3.2455556,0,-35.418894,-103.57556)" style="fill:url(#linearGradient4033);fill-opacity:1;stroke:none"/>
  <path d="m 40.03 7.531 c 3.712 4.085 5.969 9.514 5.969 15.469 c 0 12.703 -10.297 23 -23 23 c -5.954 0 -11.384 -2.256 -15.469 -5.969 c 4.178 4.291 10.01 6.969 16.469 6.969 c 12.703 0 23 -10.297 23 -23 c 0 -6.462 -2.677 -12.291 -6.969 -16.469 z" transform="scale(0.28222223,0.28222223)" style="fill:#000;opacity:0.1;fill-opacity:1;stroke:none"/>
 </g>
 <g>
  <path d="m 5.644 9.313 c 0.064 -0.262 0.269 -0.452 0.448 -0.605 0.117 -0.076 0.123 -0.139 0.029 -0.183 -0.477 -0.221 -0.869 -0.358 -1.263 -0.575 -0.667 -0.373 -1.05 -0.914 -1.151 -1.628 c -0.021 -0.171 -0.021 -0.349 0.009 -0.474 0.041 -0.089 0.126 -0.142 0.227 -0.142 0.065 0 0.102 0.015 0.283 0.116 0.412 0.229 0.815 0.411 1.026 0.464 0.086 0.021 0.095 0.021 0.144 -0.006 0.232 -0.129 0.412 -0.325 0.493 -0.354 l 1.847 0 c 0.283 0.332 0.683 0.55 1.022 0.682 0.37 0.093 0.911 0 1.307 -0.221 0.208 -0.123 0.332 -0.249 0.399 -0.461 l 0.516 0 c 0 0.039 -0.107 0.326 -0.184 0.429 -0.246 0.332 -0.63 0.6 -1.212 0.846 -0.835 0.418 -1.397 0.99 -2.118 1.324 -0.14 0.071 -0.024 0.112 0.037 0.182 0.195 0.177 0.335 0.365 0.399 0.605 z m -0.437 -1.861 -0.127 -0.637 c -0.011 -0.007 -0.065 -0.028 -0.12 -0.046 -0.11 -0.036 -0.399 -0.157 -0.525 -0.221 -0.093 -0.047 -0.144 -0.052 -0.144 -0.014 0 0.05 0.116 0.282 0.202 0.404 0.094 0.134 0.199 0.241 0.342 0.352 0.132 0.101 0.306 0.205 0.346 0.205 0.03 0 0.033 -0.006 0.027 -0.042 z m 0.775 -1.808 c 0.006 -0.011 0.069 -0.131 0.139 -0.246 0.294 -0.475 0.43 -0.601 0.651 -0.601 0.211 0 0.36 0.134 0.639 0.579 0.087 0.138 0.158 0.263 0.158 0.268 z" style="fill:#000;opacity:0.1;fill-opacity:1"/>
  <path d="m 5.362 9.03 c 0.064 -0.262 0.269 -0.452 0.448 -0.605 0.117 -0.076 0.123 -0.139 0.029 -0.183 -0.477 -0.221 -0.869 -0.358 -1.263 -0.575 -0.667 -0.373 -1.05 -0.914 -1.151 -1.628 c -0.021 -0.171 -0.021 -0.349 0.009 -0.474 0.041 -0.089 0.126 -0.142 0.227 -0.142 0.065 0 0.102 0.015 0.283 0.116 0.412 0.229 0.815 0.411 1.026 0.464 0.086 0.021 0.095 0.021 0.144 -0.006 0.232 -0.129 0.412 -0.325 0.493 -0.354 l 1.847 0 c 0.283 0.332 0.683 0.55 1.022 0.682 0.37 0.093 0.911 0 1.307 -0.221 0.208 -0.123 0.332 -0.249 0.399 -0.461 l 0.516 0 c 0 0.039 -0.107 0.326 -0.184 0.429 -0.246 0.332 -0.63 0.6 -1.212 0.846 -0.835 0.418 -1.397 0.99 -2.118 1.324 -0.14 0.071 -0.024 0.112 0.037 0.182 0.195 0.177 0.335 0.365 0.399 0.605 z m -0.437 -1.861 -0.127 -0.637 c -0.011 -0.007 -0.065 -0.028 -0.12 -0.046 -0.11 -0.036 -0.399 -0.157 -0.525 -0.221 -0.093 -0.047 -0.144 -0.052 -0.144 -0.014 0 0.05 0.116 0.282 0.202 0.404 0.094 0.134 0.199 0.241 0.342 0.352 0.132 0.101 0.306 0.205 0.346 0.205 0.03 0 0.033 -0.006 0.027 -0.042 z m 0.775 -1.808 c 0.006 -0.011 0.069 -0.131 0.139 -0.246 0.294 -0.475 0.43 -0.601 0.651 -0.601 0.211 0 0.36 0.134 0.639 0.579 0.087 0.138 0.158 0.263 0.158 0.268 z" style="fill:#d11616;fill-opacity:1"/>
 </g>
</svg>
